packages/core/src/svgs/tokens/branded/WIFI.svg

<svg width="24" height="24" viewBox="0 0 24 24" fill="none" xmlns="http://www.w3.org/2000/svg">
<path d="M5.02868 2.00001H3.02869C2.76202 2.00001 2.59535 2.24001 2.69535 2.45335L6.2087 9.80005C6.2687 9.91999 6.39537 10.0001 6.54203 10.0001H8.83537C8.96876 10.0001 9.09538 9.93337 9.15543 9.81343L11.7353 5.04001C11.751 5.01142 11.7742 4.98764 11.8025 4.97119C11.8307 4.95475 11.8627 4.94627 11.8954 4.94668H12.1087C12.1754 4.94668 12.2354 4.98001 12.262 5.04001L14.8687 9.81997C14.9354 9.92668 15.0554 10.0001 15.1887 10.0001H17.4686C17.6086 10.0001 17.7354 9.92668 17.7953 9.80005L21.302 2.45335C21.4087 2.24001 21.2354 2.00001 20.9753 2.00001H19.0821C19.0153 2.00001 18.9488 2.03335 18.922 2.09335L16.6154 6.74002C16.4886 6.98669 16.1088 6.99336 15.9753 6.75335L13.4553 2.18001C13.4236 2.12505 13.378 2.07946 13.3229 2.04785C13.2679 2.01624 13.2055 1.99973 13.142 2.00001H10.9154C10.7821 2.00001 10.662 2.06668 10.6021 2.18001L8.0887 6.74669C7.95536 6.98669 7.56869 6.98003 7.44202 6.73335L5.18869 2.09335C5.17298 2.06474 5.1498 2.04096 5.12161 2.02451C5.09344 2.00807 5.06132 1.99961 5.02868 2.00001ZM5.02868 22H3.02869C2.76202 22 2.59535 21.7534 2.69535 21.5333L6.2087 14.1934C6.2687 14.0733 6.39537 13.9934 6.54203 13.9934H8.83537C8.96876 13.9934 9.09538 14.0666 9.15543 14.18L11.7353 18.9534C11.7688 19.0133 11.8287 19.0468 11.8954 19.0468H12.1087C12.1754 19.0468 12.2354 19.0133 12.262 18.9534L14.8687 14.18C14.901 14.124 14.9477 14.0778 15.004 14.0461C15.0603 14.0145 15.1241 13.9985 15.1887 14.0001H17.4686C17.6086 14.0001 17.7354 14.0666 17.7953 14.1867L21.302 21.54C21.4087 21.7534 21.2354 22 20.9753 22H19.0821C19.0153 22 18.9488 21.96 18.922 21.9001L16.6154 17.2534C16.4886 17.0066 16.1088 17.0001 15.9753 17.2467L13.4553 21.82C13.4236 21.8751 13.378 21.9207 13.3229 21.9522C13.2679 21.9838 13.2055 22.0003 13.142 22H10.9154C10.7821 22 10.662 21.9334 10.6021 21.82L8.0887 17.2534C7.95536 17.0066 7.56869 17.0133 7.44202 17.2667L5.18869 21.9001C5.17388 21.9298 5.15109 21.955 5.12284 21.9728C5.09459 21.9904 5.062 21.9998 5.02868 22ZM3.69535 11.3334C3.49535 11.3334 3.33535 11.4734 3.33535 11.6533V12.3467C3.33535 12.5266 3.49535 12.6666 3.69535 12.6666H20.3088C20.5087 12.6666 20.6687 12.5266 20.6687 12.3467V11.6533C20.6687 11.4734 20.5087 11.3334 20.3088 11.3334H3.69535Z" fill="url(#paint0_linear_364_7788)"/>
<defs>
<linearGradient id="paint0_linear_364_7788" x1="12.0001" y1="2" x2="12.0001" y2="22" gradientUnits="userSpaceOnUse">
<stop stop-color="#0176F0"/>
<stop offset="1" stop-color="#8C54FE"/>
</linearGradient>
</defs>
</svg>

<svg xmlns="http://www.w3.org/2000/svg" width="24" height="24" fill="none" viewBox="0 0 24 24">
    <path fill="url(#WIFI__a)" d="M5.029 2h-2c-.267 0-.434.24-.334.453L6.21 9.8c.06.12.186.2.333.2h2.293c.134 0 .26-.067.32-.187l2.58-4.773a.18.18 0 0 1 .16-.093h.214c.066 0 .126.033.153.093l2.607 4.78c.066.107.186.18.32.18h2.28c.14 0 .266-.073.326-.2l3.507-7.347C21.41 2.24 21.236 2 20.976 2h-1.893c-.067 0-.133.033-.16.093L16.615 6.74c-.126.247-.506.253-.64.013l-2.52-4.573a.36.36 0 0 0-.313-.18h-2.227a.35.35 0 0 0-.313.18L8.09 6.747c-.134.24-.52.233-.647-.014L5.19 2.093A.18.18 0 0 0 5.029 2m0 20h-2c-.267 0-.434-.247-.334-.467l3.514-7.34c.06-.12.186-.2.333-.2h2.293c.134 0 .26.074.32.187l2.58 4.773a.18.18 0 0 0 .16.094h.214a.16.16 0 0 0 .153-.094l2.607-4.773a.36.36 0 0 1 .32-.18h2.28c.14 0 .266.067.326.187l3.507 7.353c.107.213-.067.46-.327.46h-1.893a.18.18 0 0 1-.16-.1l-2.307-4.647c-.126-.246-.506-.253-.64-.006l-2.52 4.573a.36.36 0 0 1-.313.18h-2.227a.35.35 0 0 1-.313-.18L8.09 17.253c-.134-.246-.52-.24-.647.014L5.189 21.9a.18.18 0 0 1-.16.1M3.695 11.333c-.2 0-.36.14-.36.32v.694c0 .18.16.32.36.32H20.31c.2 0 .36-.14.36-.32v-.694c0-.18-.16-.32-.36-.32z"/>
    <defs>
        <linearGradient id="WIFI__a" x1="12" x2="12" y1="2" y2="22" gradientUnits="userSpaceOnUse">
            <stop stop-color="#0176F0"/>
            <stop offset="1" stop-color="#8C54FE"/>
        </linearGradient>
    </defs>
</svg>
